X:1
T:Die Kirch mit sampt
T:André Vierendeels
T:Melody by Georg Vogler (1625) (Soprano voice)
T:Source : Catechismus---Würzburg---J.Volmari---1652. Editor : André Vierendeels (08/10/17). 
T:Notes : Original clef: C1, other voices supplied editorially Original note values have been halved Text middle German
T:Die Kirch mit sampt
T:©
T:©
C:André Vierendeels
Z:©
%%score [ 1 2 3 ]
L:1/8
Q:1/4=86
M:2/2
K:F
V:1 treble nm="Soprano" snm="S"
V:2 treble-8 nm="Tenor" snm="T"
V:3 bass nm="Bass" snm="B"
V:1
"^1)" C4 D2 D2 | F2 E2 F4 | G4 A4 | z4 c4 | c2 c2 c2 A2 | B2 c2 c4 | z4 F4 | G2 A2 B4 | A4 d4 | %9
w: Die Kirch mit|sampt dem heil-|gen Geist,|von|die- sem Sa- cra-|men- ten weist,|bey|die- ser Kirch|bleibt Je-|
w: Es schickt sich|die Zahl gar|_ fein:|desz|Geists Ga- ben auch|sie- ben seyn:|Sie-|ben Tu- gend|seyn dar-|
 c4 A4 | z4 E4 | G2 G2 D4 | D4 F4 | G4 F4 | z4 A4 | c2 d2 A4 | G4 F2 F2 | E4 z4 | F4 E2 F2 | %19
w: sus Christ,|weil|sie ein Grund|der War-|heit ist.|So|viel er kannt|der Vat- ter|Zahl,|die Schrifft und|
w: inn b'reit:-|Staub,|Hoff- nung, Lieb,|Ge- rech-|tig- keit,|die|Stärck- te, mit|der Mäs- sig-|keit,|wie auch Kluch-|
 G2 A2 B4 | G4 !fermata!A4 |] %21
w: die Con- ci-|li all.|
w: und Für- sich-|tig- keit.|
V:2
"^2)""^1)" G4 F2 F2 | A2 c2 c4 | B4 A4 | z4 e4 | f2 f2 e2 f2 | d2 c2 f4 | z4 A4 | B2 c2 d4 | %8
w: Die Kirch mit|sampt dem heil-|gen Geist,|von|die- sem Sa- cra-|ment- ten weist,|bey|die- ser Kirck|
w: Der Kranck- hei-|ten man sie-|ben zehlt:|erb-|fünd, in die ein|je- der fällt,|die|Todt- sünd, auch|
 c4 f4 | e4 c4 | z4 G4 | d2 d2 A4 | F4 c4 | e4 A4 | z4 d4 | e2 d2 d4 | e4 c2 c2 | G4 z4 | %18
w: bleibt Je-|sus Christ,|weil|sie ein Grund|der War-|heit ist.|So|viel er kannt|der Vat- ter|Zahl,|
w: die lätz-|lich Sünd,|so|man ver- drusz|in gu-|ten find,|desz|Fleisch Sta- chel,|Un- wis- sig-|keit.|
 c4 G2 d2 | d2 c2 d4 | c4 !fermata!c4 |] %21
w: die Schrifft und|die Con- ci-|li all.|
w: in be- kandt-|nutz Ge- brech-|lig- keit.|
V:3
"^3)""^1)""^4)" C,4 B,,2 B,,2 | D,2 C,2 F,4 | G,4 D,4 | z4 C,4 | F,2 F,2 C,2 F,2 | B,,2 C,2 F,4 | %6
w: Die Kirch mit|sampt dem heil-|gen geist,|von|die- sem Sa- cra-|men- ten weist,|
w: Sie- ben Läm-|mer gab A-|bra- ham,|der-|zu desz Bunds Bron-|* nen kam.|
 z4 F,4 | G,2 F,2 B,,4 | F,,4 D,4 | C,4 F,4 | z4 C,4 | B,,2 B,,2 D,4 | B,,4 F,,4 | C,4 F,4 | %14
w: bey|die- ser Kirch|bleibt Je-|sus Christ,|weil|sie ein Grund|der War-|heit ist.|
w: Sie-|ben Säul hätt|der Weisz-|heid- hausz,|mit|wel- chen es|ge- zie-|ret ausz.|
 z4 D,4 | C,2 B,,2 D,4 | C,4 F,2 F,2 | C,4 z4 | F,4 C,2 B,,2 | G,,2 F,,2 G,,4 | C,4 !fermata!F,4 |] %21
w: So|viel er kannt|der Vat- ter|Zahl,|die Schrifft und|die Con- ci-|li all.|
w: Durch|der sie- ben|Po- sau- nen|Schall|will Gott dasz|Stadt und Maw-|zen fall.|

